assets/1. 1-F/Cherries/Color/Cherries-color.svg

<svg width="100%" height="100%" viewBox="0 0 32 32" fill="none" xmlns="http://www.w3.org/2000/svg">
<path d="M19.7017 3.25889C9.84736 5.12143 7.50755 13.8713 7.59383 17.1642L9.46094 17.1055C9.63334 13.9151 10.8292 11.346 12.4315 9.44483L12.437 9.43828C12.9301 8.85319 13.2714 8.44817 13.7695 9.21484L19.6875 18.3086L21.359 17.415L15.309 8.09709C14.8164 7.33203 14.9844 7.13281 15.5856 6.73645C16.4003 6.2383 17.2236 5.86062 18.005 5.60275C18.6992 5.379 18.8671 5.73057 18.9397 5.90473C20.6994 10.1312 22.7656 11.7774 23.9439 12.2607C25.7734 12.9532 27.1367 13.1876 29.5665 12.3613C29.8007 12.2813 29.8828 12.0162 29.6959 11.7142C29.6959 11.7142 28.0568 9.14672 26.4604 6.29299C26.4604 6.29299 24.6384 2.48573 19.7017 3.25889Z" fill="url(#paint0_radial_18_32153)"/>
<g filter="url(#filter0_f_18_32153)">
<path d="M8.43811 17.7432C8.43811 17.7432 8.43811 7.5355 18.5377 4.51099" stroke="url(#paint1_linear_18_32153)" stroke-width="0.5"/>
</g>
<g filter="url(#filter1_f_18_32153)">
<path d="M21.2307 18.6379C21.3061 18.7536 21.461 18.7862 21.5767 18.7109C21.6924 18.6355 21.725 18.4806 21.6496 18.3649L21.2307 18.6379ZM14.806 7.8635C14.7306 7.74783 14.5757 7.71517 14.4601 7.79055C14.3444 7.86593 14.3117 8.02082 14.3871 8.1365L14.806 7.8635ZM21.6496 18.3649L14.806 7.8635L14.3871 8.1365L21.2307 18.6379L21.6496 18.3649Z" fill="url(#paint2_linear_18_32153)"/>
</g>
<g filter="url(#filter2_f_18_32153)">
<path d="M14.5966 5.28107C16.019 4.43064 17.7131 3.76219 19.7231 3.38207C22.1521 3.00218 23.8065 3.74823 24.8544 4.58373C25.3799 5.00272 25.7543 5.44548 25.9971 5.78315C26.1185 5.95189 26.2067 6.09412 26.2644 6.19358C26.2932 6.24329 26.3143 6.28229 26.3281 6.30854C26.335 6.32166 26.3401 6.3316 26.3433 6.33808L26.3468 6.34519L26.3475 6.34705L26.3514 6.354C27.1506 7.78269 27.9603 9.13944 28.5701 10.1389C28.8751 10.6386 29.1301 11.0492 29.3089 11.3348C29.3984 11.4776 29.4687 11.5892 29.5168 11.6652L29.5717 11.7518L29.5901 11.7808C29.671 11.9117 29.6844 12.0195 29.6674 12.0928C29.6512 12.1627 29.6045 12.2162 29.5263 12.243C28.3218 12.6526 27.3896 12.7966 26.5361 12.7557C25.6826 12.7148 24.8991 12.4885 23.9898 12.1444C22.8519 11.677 20.8061 10.0622 19.0551 5.85667C19.0177 5.7669 18.9447 5.60101 18.7692 5.49698C18.5898 5.39064 18.3329 5.36571 17.9658 5.48403C17.7698 5.54874 17.5712 5.62086 17.3708 5.70042C16.763 5.94176 16.139 6.25147 15.5204 6.62974L15.5168 6.63208C15.5163 6.6324 15.5158 6.63272 15.5154 6.63303L14.5966 5.28107Z" fill="url(#paint3_radial_18_32153)"/>
</g>
<path d="M8.5 30C12.0899 30 15 27.0899 15 23.5C15 19.9101 12.0899 17 8.5 17C4.91015 17 2 19.9101 2 23.5C2 27.0899 4.91015 30 8.5 30Z" fill="url(#paint4_radial_18_32153)"/>
<path d="M8.5 30C12.0899 30 15 27.0899 15 23.5C15 19.9101 12.0899 17 8.5 17C4.91015 17 2 19.9101 2 23.5C2 27.0899 4.91015 30 8.5 30Z" fill="url(#paint5_radial_18_32153)"/>
<path d="M23.53 30C27.1199 30 30.03 27.0899 30.03 23.5C30.03 19.9101 27.1199 17 23.53 17C19.9402 17 17.03 19.9101 17.03 23.5C17.03 27.0899 19.9402 30 23.53 30Z" fill="url(#paint6_radial_18_32153)"/>
<path d="M23.53 30C27.1199 30 30.03 27.0899 30.03 23.5C30.03 19.9101 27.1199 17 23.53 17C19.9402 17 17.03 19.9101 17.03 23.5C17.03 27.0899 19.9402 30 23.53 30Z" fill="url(#paint7_radial_18_32153)"/>
<g filter="url(#filter3_f_18_32153)">
<path d="M24.5203 5.01447C22.9819 3.57817 21.8563 4.11194 21.4239 4.48259C20.9915 4.85324 19.9078 6.9951 22.6369 9.68089C25.366 12.3667 28.6058 11.6627 28.6058 11.6627C28.6058 11.6627 26.0587 6.45077 24.5203 5.01447Z" fill="url(#paint8_linear_18_32153)" fill-opacity="0.2"/>
</g>
<defs>
<filter id="filter0_f_18_32153" x="7.58811" y="3.67148" width="11.6214" height="14.6718" filterUnits="userSpaceOnUse" color-interpolation-filters="sRGB">
<feFlood flood-opacity="0" result="BackgroundImageFix"/>
<feBlend mode="normal" in="SourceGraphic" in2="BackgroundImageFix" result="shape"/>
<feGaussianBlur stdDeviation="0.3" result="effect1_foregroundBlur_18_32153"/>
</filter>
<filter id="filter1_f_18_32153" x="13.8466" y="7.25" width="8.34363" height="12.0015" filterUnits="userSpaceOnUse" color-interpolation-filters="sRGB">
<feFlood flood-opacity="0" result="BackgroundImageFix"/>
<feBlend mode="normal" in="SourceGraphic" in2="BackgroundImageFix" result="shape"/>
<feGaussianBlur stdDeviation="0.25" result="effect1_foregroundBlur_18_32153"/>
</filter>
<filter id="filter2_f_18_32153" x="14.3966" y="3.08027" width="15.4773" height="9.88212" filterUnits="userSpaceOnUse" color-interpolation-filters="sRGB">
<feFlood flood-opacity="0" result="BackgroundImageFix"/>
<feBlend mode="normal" in="SourceGraphic" in2="BackgroundImageFix" result="shape"/>
<feGaussianBlur stdDeviation="0.1" result="effect1_foregroundBlur_18_32153"/>
</filter>
<filter id="filter3_f_18_32153" x="20.1444" y="3.37092" width="9.16147" height="9.07505" filterUnits="userSpaceOnUse" color-interpolation-filters="sRGB">
<feFlood flood-opacity="0" result="BackgroundImageFix"/>
<feBlend mode="normal" in="SourceGraphic" in2="BackgroundImageFix" result="shape"/>
<feGaussianBlur stdDeviation="0.35" result="effect1_foregroundBlur_18_32153"/>
</filter>
<radialGradient id="paint0_radial_18_32153" cx="0" cy="0" r="1" gradientUnits="userSpaceOnUse" gradientTransform="translate(26.137 5.74545) rotate(149.036) scale(21.9358 32.3879)">
<stop stop-color="#86BC09"/>
<stop offset="1" stop-color="#79B024"/>
</radialGradient>
<linearGradient id="paint1_linear_18_32153" x1="18.5377" y1="4.18694" x2="8.43811" y2="17.1491" gradientUnits="userSpaceOnUse">
<stop stop-color="#A7D050" stop-opacity="0"/>
<stop offset="0.526042" stop-color="#A7D050" stop-opacity="0.75"/>
</linearGradient>
<linearGradient id="paint2_linear_18_32153" x1="14.5966" y1="8" x2="21.0762" y2="17.9052" gradientUnits="userSpaceOnUse">
<stop stop-color="#A7D050" stop-opacity="0"/>
<stop offset="0.276042" stop-color="#A7D050" stop-opacity="0.6"/>
</linearGradient>
<radialGradient id="paint3_radial_18_32153" cx="0" cy="0" r="1" gradientUnits="userSpaceOnUse" gradientTransform="translate(30.7219 2.76723) rotate(118.501) scale(9.85467 14.5503)">
<stop offset="0.491849" stop-color="#B8FF2C"/>
<stop offset="1" stop-color="#A7DC3E" stop-opacity="0"/>
</radialGradient>
<radialGradient id="paint4_radial_18_32153" cx="0" cy="0" r="1" gradientUnits="userSpaceOnUse" gradientTransform="translate(10.2705 21.5376) rotate(134.7) scale(9.09441)">
<stop stop-color="#FF7495"/>
<stop offset="0.505208" stop-color="#FF1D61"/>
<stop offset="1" stop-color="#CF1D75"/>
</radialGradient>
<radialGradient id="paint5_radial_18_32153" cx="0" cy="0" r="1" gradientUnits="userSpaceOnUse" gradientTransform="translate(1.58414 20.4602) rotate(34.3803) scale(10.8514)">
<stop stop-color="#902429"/>
<stop offset="1" stop-color="#D11146" stop-opacity="0"/>
</radialGradient>
<radialGradient id="paint6_radial_18_32153" cx="0" cy="0" r="1" gradientUnits="userSpaceOnUse" gradientTransform="translate(25.3006 21.5376) rotate(134.7) scale(9.09441)">
<stop stop-color="#FF7495"/>
<stop offset="0.505208" stop-color="#FF1D61"/>
<stop offset="1" stop-color="#CF1D75"/>
</radialGradient>
<radialGradient id="paint7_radial_18_32153" cx="0" cy="0" r="1" gradientUnits="userSpaceOnUse" gradientTransform="translate(16.6142 20.4602) rotate(34.3803) scale(10.8514)">
<stop stop-color="#902429"/>
<stop offset="1" stop-color="#D11146" stop-opacity="0"/>
</radialGradient>
<linearGradient id="paint8_linear_18_32153" x1="25.937" y1="5.42903" x2="22.1023" y2="9.53371" gradientUnits="userSpaceOnUse">
<stop stop-color="#BDF45B"/>
<stop offset="0.833333" stop-color="#BDF45B" stop-opacity="0"/>
</linearGradient>
</defs>
</svg>

<svg width="100%" height="100%" viewBox="0 0 32 32" xmlns="http://www.w3.org/2000/svg"><path fill="url(#a)" d="M19.702 3.259C9.847 5.12 7.508 13.87 7.594 17.164l1.867-.059c.172-3.19 1.368-5.759 2.97-7.66l.006-.007c.493-.585.834-.99 1.333-.223l5.918 9.094 1.671-.894-6.05-9.318c-.493-.765-.325-.964.277-1.36a11.7 11.7 0 0 1 2.419-1.134c.694-.224.862.128.935.302 1.76 4.226 3.826 5.872 5.004 6.356 1.83.692 3.193.927 5.623.1.234-.08.316-.345.129-.647 0 0-1.64-2.567-3.236-5.421 0 0-1.822-3.807-6.758-3.034"/><g filter="url(#b)"><path stroke="url(#c)" stroke-width=".5" d="M8.438 17.743s0-10.207 10.1-13.232"/></g><g filter="url(#d)"><path fill="url(#e)" d="M21.23 18.638a.25.25 0 0 0 .42-.273zM14.807 7.863a.25.25 0 1 0-.419.273zm6.844 10.502L14.806 7.864l-.419.272 6.844 10.502z"/></g><g filter="url(#f)"><path fill="url(#g)" d="M14.597 5.281c1.422-.85 3.116-1.519 5.126-1.899 2.43-.38 4.084.366 5.131 1.202.526.419.9.861 1.143 1.2a5 5 0 0 1 .346.554l.004.007v.002l.004.007a119 119 0 0 0 3.166 5.311l.055.087.018.029c.081.13.094.239.077.312a.2.2 0 0 1-.14.15c-1.205.41-2.137.554-2.99.513s-1.638-.268-2.547-.612c-1.138-.467-3.184-2.082-4.935-6.287a.7.7 0 0 0-.286-.36c-.18-.106-.436-.131-.803-.013q-.295.097-.595.216c-.608.242-1.232.551-1.85.93l-.004.002-.002.001z"/></g><path fill="url(#h)" d="M8.5 30a6.5 6.5 0 1 0 0-13 6.5 6.5 0 0 0 0 13"/><path fill="url(#i)" d="M8.5 30a6.5 6.5 0 1 0 0-13 6.5 6.5 0 0 0 0 13"/><path fill="url(#j)" d="M23.53 30a6.5 6.5 0 1 0 0-13 6.5 6.5 0 0 0 0 13"/><path fill="url(#k)" d="M23.53 30a6.5 6.5 0 1 0 0-13 6.5 6.5 0 0 0 0 13"/><g filter="url(#l)"><path fill="url(#m)" fill-opacity=".2" d="M24.52 5.014c-1.538-1.436-2.664-.902-3.096-.531-.433.37-1.516 2.512 1.213 5.198s5.969 1.982 5.969 1.982-2.547-5.212-4.086-6.649"/></g><defs><radialGradient id="a" cx="0" cy="0" r="1" gradientTransform="rotate(149.036 12.273 6.493)scale(21.9358 32.3879)" gradientUnits="userSpaceOnUse"><stop stop-color="#86BC09"/><stop offset="1" stop-color="#79B024"/></radialGradient><radialGradient id="g" cx="0" cy="0" r="1" gradientTransform="rotate(118.501 14.538 10.522)scale(9.85467 14.5503)" gradientUnits="userSpaceOnUse"><stop offset=".492" stop-color="#B8FF2C"/><stop offset="1" stop-color="#A7DC3E" stop-opacity="0"/></radialGradient><radialGradient id="h" cx="0" cy="0" r="1" gradientTransform="rotate(134.7 .642 12.912)scale(9.09441)" gradientUnits="userSpaceOnUse"><stop stop-color="#FF7495"/><stop offset=".505" stop-color="#FF1D61"/><stop offset="1" stop-color="#CF1D75"/></radialGradient><radialGradient id="i" cx="0" cy="0" r="1" gradientTransform="rotate(34.38 -32.276 12.79)scale(10.8514)" gradientUnits="userSpaceOnUse"><stop stop-color="#902429"/><stop offset="1" stop-color="#D11146" stop-opacity="0"/></radialGradient><radialGradient id="j" cx="0" cy="0" r="1" gradientTransform="rotate(134.7 8.157 16.048)scale(9.09441)" gradientUnits="userSpaceOnUse"><stop stop-color="#FF7495"/><stop offset=".505" stop-color="#FF1D61"/><stop offset="1" stop-color="#CF1D75"/></radialGradient><radialGradient id="k" cx="0" cy="0" r="1" gradientTransform="rotate(34.38 -24.761 37.082)scale(10.8514)" gradientUnits="userSpaceOnUse"><stop stop-color="#902429"/><stop offset="1" stop-color="#D11146" stop-opacity="0"/></radialGradient><filter id="b" width="11.621" height="14.672" x="7.588" y="3.671" color-interpolation-filters="sRGB" filterUnits="userSpaceOnUse"><feFlood flood-opacity="0" result="BackgroundImageFix"/><feBlend in="SourceGraphic" in2="BackgroundImageFix" result="shape"/><feGaussianBlur result="effect1_foregroundBlur_18_32153" stdDeviation=".3"/></filter><filter id="d" width="8.344" height="12.002" x="13.847" y="7.25" color-interpolation-filters="sRGB" filterUnits="userSpaceOnUse"><feFlood flood-opacity="0" result="BackgroundImageFix"/><feBlend in="SourceGraphic" in2="BackgroundImageFix" result="shape"/><feGaussianBlur result="effect1_foregroundBlur_18_32153" stdDeviation=".25"/></filter><filter id="f" width="15.477" height="9.882" x="14.397" y="3.08" color-interpolation-filters="sRGB" filterUnits="userSpaceOnUse"><feFlood flood-opacity="0" result="BackgroundImageFix"/><feBlend in="SourceGraphic" in2="BackgroundImageFix" result="shape"/><feGaussianBlur result="effect1_foregroundBlur_18_32153" stdDeviation=".1"/></filter><filter id="l" width="9.161" height="9.075" x="20.144" y="3.371" color-interpolation-filters="sRGB" filterUnits="userSpaceOnUse"><feFlood flood-opacity="0" result="BackgroundImageFix"/><feBlend in="SourceGraphic" in2="BackgroundImageFix" result="shape"/><feGaussianBlur result="effect1_foregroundBlur_18_32153" stdDeviation=".35"/></filter><linearGradient id="c" x1="18.538" x2="8.438" y1="4.187" y2="17.149" gradientUnits="userSpaceOnUse"><stop stop-color="#A7D050" stop-opacity="0"/><stop offset=".526" stop-color="#A7D050" stop-opacity=".75"/></linearGradient><linearGradient id="e" x1="14.597" x2="21.076" y1="8" y2="17.905" gradientUnits="userSpaceOnUse"><stop stop-color="#A7D050" stop-opacity="0"/><stop offset=".276" stop-color="#A7D050" stop-opacity=".6"/></linearGradient><linearGradient id="m" x1="25.937" x2="22.102" y1="5.429" y2="9.534" gradientUnits="userSpaceOnUse"><stop stop-color="#BDF45B"/><stop offset=".833" stop-color="#BDF45B" stop-opacity="0"/></linearGradient></defs></svg>
